svg/fluentui-system-icons/ic_fluent_chat_sparkle_48_filled.svg

<svg width="48" height="48" viewBox="0 0 48 48" fill="none" xmlns="http://www.w3.org/2000/svg">
<path d="M31.8334 13.1121C31.6968 12.9356 31.549 12.7674 31.3906 12.6085C30.801 12.017 30.0811 11.5715 29.2885 11.3074L26.686 10.4622C26.4854 10.3915 26.3117 10.2603 26.1888 10.0868C26.066 9.91335 26 9.70604 26 9.4935C26 9.28096 26.066 9.07365 26.1888 8.90016C26.3117 8.72666 26.4854 8.59552 26.686 8.52481L29.2885 7.67964C30.0701 7.40998 30.7786 6.96332 31.3588 6.37459C31.923 5.802 32.3509 5.11012 32.6111 4.35036L32.6327 4.28598L33.4785 1.68547C33.5493 1.48503 33.6805 1.31147 33.8542 1.1887C34.0278 1.06593 34.2352 1 34.448 1C34.6607 1 34.8681 1.06593 35.0417 1.1887C35.2154 1.31147 35.3466 1.48503 35.4174 1.68547L36.2632 4.28598C36.5262 5.07658 36.9701 5.79499 37.5597 6.38412C38.1493 6.97324 38.8682 7.41683 39.6595 7.67964L42.262 8.52481L42.314 8.53781C42.5146 8.60852 42.6883 8.73966 42.8112 8.91316C42.934 9.08665 43 9.29396 43 9.5065C43 9.71904 42.934 9.92635 42.8112 10.0998C42.6883 10.2733 42.5146 10.4045 42.314 10.4752L39.7115 11.3204C38.9203 11.5832 38.2013 12.0268 37.6118 12.6159C37.0222 13.205 36.5783 13.9234 36.3152 14.714L35.4694 17.3145C35.4618 17.3362 35.4535 17.3575 35.4444 17.3784C35.3699 17.5518 35.2487 17.7018 35.0938 17.8113C34.9202 17.9341 34.7127 18 34.5 18C34.2873 18 34.0798 17.9341 33.9062 17.8113C33.7326 17.6885 33.6013 17.515 33.5306 17.3145L32.6848 14.714C32.4937 14.134 32.2053 13.5925 31.8334 13.1121ZM46.6093 19.9837L45.2315 19.5363C44.8126 19.3971 44.432 19.1623 44.1199 18.8504C43.8077 18.5385 43.5727 18.1582 43.4335 17.7396L42.9857 16.3629C42.9482 16.2568 42.8787 16.1649 42.7868 16.0999C42.6949 16.0349 42.5851 16 42.4724 16C42.3598 16 42.25 16.0349 42.1581 16.0999C42.0662 16.1649 41.9967 16.2568 41.9592 16.3629L41.5114 17.7396C41.375 18.1553 41.1441 18.5337 40.837 18.8454C40.5299 19.1571 40.1547 19.3935 39.741 19.5363L38.3632 19.9837C38.257 20.0212 38.165 20.0906 38.1 20.1824C38.0349 20.2743 38 20.384 38 20.4966C38 20.6091 38.0349 20.7188 38.1 20.8107C38.165 20.9025 38.257 20.972 38.3632 21.0094L39.741 21.4568C39.8924 21.5073 40.0387 21.5702 40.1787 21.6448L40.1816 21.66C40.4276 21.7913 40.6536 21.9585 40.852 22.1569C41.1645 22.4694 41.3997 22.8505 41.5388 23.27L41.9868 24.647C42.0243 24.7531 42.0937 24.845 42.1856 24.9101C42.2775 24.9751 42.3873 25.01 42.4998 25.01C42.6124 25.01 42.7222 24.9751 42.8141 24.9101C42.8946 24.8531 42.958 24.7754 42.9976 24.6855L42.9974 24.6768C43.0032 24.6638 43.0085 24.6506 43.0132 24.6371L43.461 23.2604C43.6003 22.8418 43.8353 22.4615 44.1474 22.1496C44.4595 21.8377 44.8402 21.6029 45.259 21.4637L46.6368 21.0163C46.743 20.9788 46.835 20.9094 46.9 20.8176C46.9651 20.7257 47 20.616 47 20.5034C47 20.3909 46.9651 20.2812 46.9 20.1893C46.835 20.0975 46.743 20.028 46.6368 19.9906L46.6093 19.9837ZM29.9296 5.00046C29.957 4.97371 29.9839 4.9465 30.0103 4.91883C28.1132 4.32187 26.0942 4 24 4C12.9543 4 4 12.9543 4 24C4 27.4475 4.87331 30.6945 6.41149 33.5283L4.06897 41.7657C3.69397 43.0844 4.9122 44.3027 6.23091 43.9276L14.4665 41.5857C17.3015 43.1256 20.5503 44 24 44C34.1605 44 42.5513 36.4234 43.831 26.6119C43.62 26.7452 43.3899 26.8473 43.1479 26.9141C42.7845 27.0145 42.4033 27.0331 42.0318 26.9685C41.6604 26.9039 41.3078 26.7577 40.9996 26.5405C40.5638 26.1994 40.2513 25.7254 40.1096 25.1905L39.6696 23.8205C39.6288 23.6967 39.5604 23.5839 39.4696 23.4905C39.4095 23.4323 39.3423 23.3819 39.2696 23.3405L39.1496 23.2805L37.7296 22.8205C37.2331 22.6449 36.8032 22.32 36.4988 21.8902C36.1944 21.4605 36.0305 20.9471 36.0296 20.4205C36.0305 20.0752 36.1055 19.7342 36.2496 19.4205C35.7425 19.78 35.1362 19.9731 34.5146 19.9731C33.893 19.9731 33.2867 19.78 32.7796 19.4205C32.2542 19.0501 31.8615 18.5208 31.6596 17.9105L30.8196 15.3205C30.7 14.9579 30.5171 14.6194 30.2796 14.3205C30.1946 14.2068 30.101 14.0998 29.9996 14.0005C29.6199 13.6321 29.1568 13.3611 28.6496 13.2105L25.9996 12.3505C25.5602 12.1957 25.1628 11.9408 24.8391 11.6058C24.5153 11.2708 24.274 10.865 24.1342 10.4206C23.9945 9.97615 23.9602 9.50528 24.034 9.04529C24.1079 8.5853 24.2878 8.14882 24.5596 7.77046C24.9339 7.24887 25.4619 6.85729 26.0696 6.65046L28.6396 5.82046C29.1266 5.64921 29.5679 5.36871 29.9296 5.00046Z" fill="#212121"/>
</svg>

<svg xmlns="http://www.w3.org/2000/svg" width="48" height="48"><path d="M31.833 13.112a5.36 5.36 0 0 0-2.544-1.805l-2.603-.845a1.028 1.028 0 0 1 0-1.937l2.602-.845a5.362 5.362 0 0 0 3.323-3.33l.022-.064.845-2.6a1.027 1.027 0 0 1 1.94 0l.845 2.6A5.356 5.356 0 0 0 39.66 7.68l2.602.845.052.013a1.028 1.028 0 0 1 0 1.937l-2.602.845a5.361 5.361 0 0 0-3.397 3.394l-.846 2.6a1.027 1.027 0 0 1-1.563.497 1.027 1.027 0 0 1-.375-.497l-.846-2.6a5.354 5.354 0 0 0-.852-1.602Zm14.776 6.872-1.378-.448a2.839 2.839 0 0 1-1.797-1.796l-.448-1.377a.544.544 0 0 0-1.027 0l-.448 1.377a2.835 2.835 0 0 1-1.77 1.796l-1.378.448a.545.545 0 0 0 0 1.025l1.378.448c.151.05.298.113.438.188l.003.015a2.837 2.837 0 0 1 1.357 1.61l.448 1.377a.545.545 0 0 0 1.01.039v-.01a.504.504 0 0 0 .016-.039l.448-1.377a2.837 2.837 0 0 1 1.798-1.796l1.378-.448a.545.545 0 0 0 0-1.025l-.028-.007ZM29.93 5c.028-.026.055-.053.081-.081A19.992 19.992 0 0 0 24 4C12.954 4 4 12.954 4 24c0 3.448.873 6.695 2.411 9.528L4.07 41.766c-.375 1.318.843 2.537 2.162 2.162l8.236-2.342A19.917 19.917 0 0 0 24 44c10.16 0 18.551-7.577 19.831-17.388A2.55 2.55 0 0 1 41 26.54a2.54 2.54 0 0 1-.89-1.35l-.44-1.37a.86.86 0 0 0-.2-.33.996.996 0 0 0-.2-.15l-.12-.06-1.42-.46a2.55 2.55 0 0 1-1.7-2.4c0-.346.075-.687.22-1a3 3 0 0 1-3.47 0 3 3 0 0 1-1.12-1.51l-.84-2.59a3.238 3.238 0 0 0-.54-1A2.765 2.765 0 0 0 30 14a3.279 3.279 0 0 0-1.35-.79L26 12.35a3 3 0 0 1-1.44-4.58 3.08 3.08 0 0 1 1.51-1.12l2.57-.83A3.38 3.38 0 0 0 29.93 5Z"/></svg>
